X:0811
T:Tibby Fowler o' the Glen
P:Tibby Fowler o' the Glen
C:Allan Ramsay's Music to Tea-Table Miscellany, 1726, and earlier
R:Strathspey (8x32)
B:RSCDS 8-11
Z:Anselm Lingnau <anselm@strathspey.org>
M:4/4
L:1/8
K:Am
B|"Am"A/A/A A>B "G"G>A Bd|"Am"eA A>B "G"d/c/B/A/ G>B|\
  "Am"A/A/A A>B "G"G>A Bd|"Am"eA A>B "Em"GE EB|
  "Am"A/A/A A>B "G"G>A Bd|"Am"eA A>B "G"d/c/B/A/ G>B|\
  "Am"A/A/A A>B "G"G>A Bd|"Am"eA A>B "Em"GE E||
a|"C"ge e>g "G"d>e dB|"C"ge e>g "Am"a>b "Em"g>e|\
  "G"d>e "(Em)"g>b "C"e>g "E7"e/d/c/B/|"Am"eA A>B "Em"GE E> a|
  "C"ge e>g "G"d>e dB|"C"ge "Am"e>a "Em"g>b "Am"ae|\
  "Em"g>b e>g "G"d>g B>d|"Am"eA A>B "Em"GE E|]
